!!!!SEGMENT: pl-wtm--r-730-19-m_moniuszko-stanislaw--czary.krn
!!!cenid: 18xx:1699
!!!COM: Moniuszko, Stanisław
!!!COM-rismID: pe30008351
!!!CDT: 1819/05/05-1872/06/04
!!!CNT: Polish
!!!OTL: Czary
!!!PDT:
!!!AGN: Secular
!!!YEC: Copyright 2022 Narodowy Instytut Fryderyka Chopina (https://polishscores.org)
!!!YEM: License CC-BY-4.0 (https://creativecommons.org/licenses/by/4.0)
!!!SMS-siglum: PL-Wtm
!!!SMS-shelfmark: R 730/19/M
!!!SMS-shelfwork: W
!!!SMS-variant:
!!!SMS-altvar:
!!!NIFC-rismSourceID: 1001099822
!!!NIFC-rismChildID: 1001099822
!!!NIFC-islandoraID:
!!!URL-pdf-islandora:
!!!URL-scan:
!!!IIIF:
!!!ONB-nifc: Skan 0023, No. 771
!!!AIN: 1 forte 1 vox
!!!key:
**kern	**kern	**dynam	**kern	**text	**text	**text	**dynam
*part2	*part2	*	*part1	*	*	*	*
*staff3	*staff2	*	*staff1	*	*	*	*
*Iforte	*Iempty	*	*Ivox	*	*	*	*
*I"[Fortepian]	*	*	*I"[Głos]	*	*	*	*
*I'pf	*	*	*I'V	*	*	*	*
*clefF4	*clefG2	*	*clefG2	*	*	*	*
*k[]	*k[]	*	*k[]	*	*	*	*
*C:	*C:	*	*C:	*	*	*	*
*M2/2	*M2/2	*	*M2/2	*	*	*	*
*met(c|)	*met(c|)	*	*met(c|)	*	*	*	*
*>[A,B,B,B,C]	*>[A,B,B,B,C]	*	*>[A,B,B,B,C]	*	*	*	*
=-	=-	=-	=-	=-	=-	=-	=-
*>A	*>A	*	*>A	*	*	*	*
!!LO:TX:t=P:problem:all\right:global
!	!	!	!LO:TX:a:i:t=Allegro.-	!	!	!	!
4GG/ 4G	4g\ 4gg	f	4r	.	.	.	.
=1	=1	=1	=1	=1	=1	=1	=1
8.C\L 8.c	8.cc\L 8.ccc	.	2ryy	.	.	.	.
16C\K 16c	16cc\K 16ccc	.	.	.	.	.	.
8EE\ 8E	8e\ 8ee	.	.	.	.	.	.
!LO:TX:t=[segno]	!LO:TX:t=[segno]	!	!LO:TX:t=[segno]	!	!	!	!
8FF\J 8F	8f\J 8ff	.	.	.	.	.	.
=-	=-	=-	=-	=-	=-	=-	=-
*>B	*>B	*	*>B	*	*	*	*
4GG\ 4G	4g\ 4gg	.	4r	.	.	.	.
(4GG/ 4D	((4G/ 4B 4f	p	8g/	To	Czy	Gdy	.
.	.	.	8g/	są	po-	z_nią	.
=2	=2	=2	=2	=2	=2	=2	=2
8C/)	8G/)) 8c 8e	.	4cc\	cza-	-go-	śpie-	.
!	!	!LO:DY:t=pp.	!	!	!	!	!
8r	8r	pp	.	.	.	.	.
*Xtuplet	*Xtuplet	*	*	*	*	*	*
12c\L 12e	12g\L 12cc 12ee	.	4cc\	-ry	-da	-wam:	.
12c\ 12e	12g\ 12cc 12ee	.	.	.	.	.	.
12c\J 12e	12g\J 12cc 12ee	.	.	.	.	.	.
8c\ 8e	8g\ 8cc 8gg	.	4r	.	.	.	.
8r	8r	p	.	.	.	.	.
4GG/ 4D	((4G/ 4B 4f	.	8g/	pew-	spra-	czu-	.
.	.	.	8g/	-no	-wia	-ię	.
=3	=3	=3	=3	=3	=3	=3	=3
8C/	8G/)) 8c 8e	.	4cc\	cza-	ci-	trwo-	.
8r	8r	.	.	.	.	.	.
12c\L 12e	12g\L 12cc 12ee	.	4cc\	-ry!	-szę;	-gę;	.
12c\ 12e	12g\ 12cc 12ee	.	.	.	.	.	.
12c\J 12e	12g\J 12cc 12ee	.	.	.	.	.	.
8c\ 8e	8g\ 8cc 8gg	p	4r	.	.	.	.
8ryy	8r	.	.	.	.	.	.
8C/L	8c/L	.	8cc\	coś	czy	gdy	.
8D/J	8d/J	.	8dd\	dziw-	wiatr	o-	.
=4	=4	=4	=4	=4	=4	=4	=4
4E\	4e/	>	4ee\	-ne-	ła-	-dey-	.
(8D/L	(>8d/L	]	8dd\L	-go	-mie	-dzie	.
8C/J	8c/J	.	8cc\J	.	.	.	.
!	!	!	!LO:TX:a:i:t=„Czary.”	!	!	!	!
4BB/)	4B/	.	4b\	w_tem	drzew	żal	.
4AA/	4A/)	.	4a/	się	ko-	bez	.
=5	=5	=5	=5	=5	=5	=5	=5
*	*^	*	*	*	*	*	*
1BBB 1BB	8B/	4ryy	pp	1b	swię-	-na-	mia-	.
.	8r	.	.	.	.	.	.	.
*	*	*2\right	*	*	*	*	*	*
.	4g#X/	2e\	.	.	.	.	.	.
.	2f/	.	.	.	.	.	.	.
.	.	4d#X\	.	.	.	.	.	.
*	*v	*v	*	*	*	*	*	*
=6	=6	=6	=6	=6	=6	=6	=6
8EE/ 8E	8e/	.	4e/	-ci;	-ry;	-ry;	.
8r	8ryy	f	.	.	.	.	.
*	*tuplet	*	*	*	*	*	*
!	!LO:TUP:a:problem=klamra łukowa	!	!	!	!	!	!
12EE/L 12E	12e\L 12ee	.	4r	.	.	.	.
12EE/ 12E	12e\ 12ee	.	.	.	.	.	.
12EE/J 12E	12e\J 12ee	.	.	.	.	.	.
8EE/ 8E	8e\ 8ee	.	4r	.	.	.	.
8r	8r	.	.	.	.	.	.
((4GG/ 4D	[<4G/ 4B (>4f	.	8g/	do-	za-	chcę	.
.	.	.	8g/	-brze	-wsze	być	.
=7	=7	=7	=7	=7	=7	=7	=7
8C/))	8G/] 8c 8e)	.	4cc\	mó-	wszę-	wes-	.
8ryy	8r	pp	.	.	.	.	.
*	*Xtuplet	*	*	*	*	*	*
12c\L 12e	12g\L 12cc 12ee	.	4cc\	-wi	-dzie	-pół	.
12c\ 12e	12g\ 12cc 12ee	.	.	.	.	.	.
12c\J 12e	12g\J 12cc 12ee	.	.	.	.	.	.
8c\ 8e	8g\ 8ee 8gg	.	4r	.	.	.	.
8r	8r	.	.	.	.	.	.
!	!LO:TX:t=P:problem=brak początku łuku i ligatury	!	!	!	!	!	!
4GG/ 4D	[<4G/ (>4B 4f	.	8g/	Oy-	głos	i	.
.	.	.	8g/	-ciec	iej	nie	.
!!LO:LB:g=original
=8	=8	=8	=8	=8	=8	=8	=8
!LO:N:vis=8.	!	!	!	!	!	!	!
(4.C/	8G/] 8c) 8e	.	4dd\	sta-	sły-	mo-	.
.	8r	pp	.	.	.	.	.
.	12e\L 12ee	.	4cc\	-ry	-szę!	-gę!	.
.	12e\ 12ee	.	.	.	.	.	.
8BB/)	.	.	.	.	.	.	.
.	12e\J 12ee	.	.	.	.	.	.
4AA/	4e\ 4cc	.	4r	.	.	.	.
4r	4d/ 4f 4a	.	8a/	ro-	o!	a-	.
.	.	.	8b/	-bię	to	-ni	.
=9	=9	=9	=9	=9	=9	=9	=9
*2\right	*	*	*	*	*	*	*
2A\	1c 1e 1a	.	4cc\	ga-	pe-	wąt-	.
.	.	.	8b/L	-dam	-wno,	-pić	.
.	.	.	8a/J	.	.	.	.
2F#X\	.	.	4g/	bez	pe-	że	.
.	.	.	4f#X/	pa-	-wno	to	.
=10	=10	=10	=10	=10	=10	=10	=10
*	*^	*	*	*	*	*	*
1BBB 1BB	(4g#X/	2e\	.	1b	-mię-	cza-	cza-	.
.	4gn/	.	.	.	.	.	.	.
.	2f#X/	4ryy	.	.	.	.	.	.
.	.	4d#X\)	.	.	.	.	.	.
*	*v	*v	*	*	*	*	*	*
=11	=11	=11	=11	=11	=11	=11	=11
8EE/ 8E	4e\	.	4e/	-ci	-ry!	-ry!	.
8r	.	.	.	.	.	.	.
*tuplet	*	*	*	*	*	*	*
!LO:TUP:a:problem=klamra łukowa	!	!	!	!	!	!	!
12BB\L 12E 12G#X 12B	4r	.	4r	.	.	.	.
12BB\ 12E 12G# 12B	.	.	.	.	.	.	.
12BB\J 12E 12G# 12B	.	.	.	.	.	.	.
4BB\ 4E 4G# 4B	2r	.	4r	.	.	.	.
4BB^\ 4E 4G# 4B	.	.	8e/	w_każ-	W_dzień	Na	.
.	.	.	8f#X/	-dem	się	to	.
=12	=12	=12	=12	=12	=12	=12	=12
8EE/	4r	.	4g#X/	miej-	myś-	mi-	.
8ryy	.	.	.	.	.	.	.
!LO:TUP:a:problem=klamra łukowa	!	!	!	!	!	!	!
12BB\L 12E 12G#X 12B	(8g#X\L 8gg#X	.	4b/	-scu,	-lą	-łe	.
12BB\ 12E 12G# 12B	.	.	.	.	.	.	.
.	8a\J) 8aa	.	.	.	.	.	.
12BB\J 12E 12G# 12B	.	.	.	.	.	.	.
4BB\ 4E 4G# 4B	4b\ 4bb	.	4r	.	.	.	.
4BB^\ 4E 4G# 4B	4ee\ 4ccc	.	8e/	każ-	przy	sło-	.
.	.	.	8f#X/	-dą	niej	-wka	.
=13	=13	=13	=13	=13	=13	=13	=13
8EE/	4r	.	4g#X/	do-	sta-	rzek-	.
8r	.	.	.	.	.	.	.
!LO:TUP:a:problem=klamra łukowa	!	!	!	!	!	!	!
12BB\L 12E 12G#X 12B	8g#X\L 8gg#X	.	4b\	-bą,	-wię,	-ła,	.
12BB\ 12E 12G# 12B	.	.	.	.	.	.	.
.	8a\J 8aa	.	.	.	.	.	.
12BB\J 12E 12G# 12B	.	.	.	.	.	.	.
4BB\ 4E 4G# 4B	4b\ 4bb	.	4r	.	.	.	.
4BB^\ 4E 4G# 4B	4ee\ 4ccc	.	8cc#X\	i-	w_no-	przy-	.
.	.	.	8b\	-dę	-cy	-wa-	.
=14	=14	=14	=14	=14	=14	=14	=14
8BBB/	4r	.	4a/	w_la-	kształt	-bi-	.
8r	.	.	.	.	.	.	.
!LO:TUP:a:problem=klamra łukowa	!	!	!	!	!	!	!
12D#X\L 12A 12B	8ddd#X\L	.	4f#X/	-sy,	jey	-ła	.
12D#\ 12A 12B	.	.	.	.	.	.	.
.	8cc#X\J 8ccc#X	.	.	.	.	.	.
12D#\J 12A 12B	.	.	.	.	.	.	.
4D#\ 4A 4B	4b\ 4bb	.	4r	.	.	.	.
4D#^\ 4A 4B	4f#X\ 4ff#X	.	8cc#X\	czy-	bio-	mię	.
.	.	.	8b\	-li	-rą	do	.
=15	=15	=15	=15	=15	=15	=15	=15
8EE/	4r	.	4b/	w_ja-	ma-	do-	.
8r	.	.	.	.	.	.	.
*Xtuplet	*	*	*	*	*	*	*
12E\L 12G#X 12B	8b\L 8bb	.	4g#X/	-ry:	-ry:	-mu,	.
12E\ 12G# 12B	.	.	.	.	.	.	.
.	8a\J 8aa	.	.	.	.	.	.
12E\J 12G# 12B	.	.	.	.	.	.	.
4E\ 4G# 4B	4g#X\ 4gg#X	.	4r	.	.	.	.
4E^\ 4G# 4B	4g#\ 4ee	.	8e/	zaw-	o-	by	.
.	.	.	8f#X/	-sze	-na	zdra-	.
!!LO:LB:g=original
=16	=16	=16	=16	=16	=16	=16	=16
8EE/	4r	.	4gn/	wi-	przy	-dzi-	.
8r	.	.	.	.	.	.	.
12BB\L 12E 12Gn 12B	8e/L	.	4b/	-dzę	mnie	-ła,	.
12BB\ 12E 12G 12B	.	.	.	.	.	.	.
.	8f#X/J	.	.	.	.	.	.
12BB\J 12E 12G 12B	.	.	.	.	.	.	.
4BB\ 4E 4G 4B	8gn/L	.	4r	.	.	.	.
.	8b/	.	.	.	.	.	.
4BB\ 4E 4G 4B	8dd/	.	8e/	ją	w_snach	by	.
.	8ff#X/J	.	8f#X/	przed	na	u-	.
=17	=17	=17	=17	=17	=17	=17	=17
8EE/	8gg\	.	8g/	so-	ja-	-rze-	.
8r	8r	.	8g/	-bą!	.	-kła!	.
*	*	*	*2\right	*	*	*	*
2GGG^>/ 2GG	2g^<\ 2b 2dd 2ff	.	2b^\	to	-wie!	u-	.
4F\	4d/ 4g 4b	.	8a/L	są	je-	-fay-	.
.	.	.	8g/J	.	-stem	.	.
=18	=18	=18	=18	=18	=18	=18	=18
8E\	8c/ 8g 8cc	.	8.cc\	cza-	pe-	-że	f
8r	8r	p	.	.	.	.	.
.	.	.	16cc\	-ry	-wny	tu	.
8.E\L	8.e/L	.	8e/	pe-	że	te-	.
.	.	.	8f/	-wno	to	-raz	.
16F\Jk	16f/Jk	.	.	.	.	.	.
8G\	8g/	f	2g/	cza-	cza-	ko-	.
8ryy	8r	.	.	.	.	.	.
4GG/ 4G	4g\ 4gg	.	.	.	.	.	.
=19	=19	=19	=19	=19	=19	=19	=19
*	*^	*	*	*	*	*	*
8.C\L 8.c	8.cc\L 8.ccc	2.ryy	.	4c/	-ry!	-ry!	-mu.	.
16C\Jk 16c	16cc\Jk 16ccc	.	.	.	.	.	.	.
8EE/L 8E	8e\L 8ee	.	.	4r	.	.	.	.
!LO:TX:b:t=D S(egno)&colon;	!	!	!	!	!	!	!	!
!LO:TX:t=[segno]	!LO:TX:t=[segno]	!	!	!LO:TX:t=[segno]	!	!	!	!
8FF/J 8F	8f\J 8ff	.	.	.	.	.	.	.
=-	=-	=-	=-	=-	=-	=-	=-	=-
*>C	*>C	*	*	*>C	*	*	*	*
4GG\ 4G	4g\ 4gg	.	.	2ryy	.	.	.	.
4GG\ 4G	4g/ 4b	4d\ 4f	.	.	.	.	.	.
*	*v	*v	*	*	*	*	*	*
=20	=20	=20	=20	=20	=20	=20	=20
4CC/ 4C	4e/ 4g 4cc	.	1ryy	.	.	.	.
*	*tuplet	*	*	*	*	*	*
!	!LO:TUP:a:problem=klamra łukowa	!	!	!	!	!	!
4CC/ 4C	12G/L 12c 12e	.	.	.	.	.	.
.	12G/ 12c 12e	.	.	.	.	.	.
.	12G/J 12c 12e	.	.	.	.	.	.
4CC/ 4C	4G/ 4c 4e	.	.	.	.	.	.
4r	4r	.	.	.	.	.	.
!!LO:PB:g=original
==	==	==	==	==	==	==	==
*-	*-	*-	*-	*-	*-	*-	*-
!!!system-decoration: s1{(s2,s3)}
!!!RDF**kern: < = below
!!!RDF**kern: > = above
!!!ENC: Marta Chmielewska
!!!END: 2021-04-21
!!!ENC: Andrzej Gręziak
!!!END: 2021-03-31
